editor/icons/ViewportZoom.svg

<svg height="16" viewBox="0 0 16 16" width="16" xmlns="http://www.w3.org/2000/svg"><path d="m6 0c-3.3019 0-6 2.6981-6 6s2.6981 6 6 6h.00195c.88828 0 1.737-.2588 2.5332-.6367l3.8281 3.8281c.39053.3904 1.0235.3904 1.4141 0l1.4141-1.4141c.39033-.3905.39033-1.0235 0-1.414l-3.791-3.791c.02779-.058.06588-.1109.0918-.17.05554-.1268.08414-.2638.08398-.4023h1.4238c.55226-.0001.99994-.4477 1-1v-1h1c.55226-.0001.99994-.4477 1-1v-2c-.000055-.5523-.44774-.9999-1-1h-1v-1c-.000055-.5523-.44774-.9999-1-1h-2c-.55226.0001-.99994.4477-1 1v1h-.00977c.000144-.3151-.14822-.6118-.40039-.8008-1.0353-.7764-2.2938-1.1967-3.5879-1.1992h-.00195z"/><path d="m6 1a5 5 0 0 0 -5 5 5 5 0 0 0 5 5 5 5 0 0 0 2.752-.83398l4.3184 4.3184 1.4141-1.4141-4.3184-4.3184a5 5 0 0 0 .41016-.75195h-.57617v-2h-1a3 3 0 0 1 -3 3 3 3 0 0 1 -3-3 3 3 0 0 1 3-3 3 3 0 0 1 2 .76758v-1.7676h.99023a5 5 0 0 0 -2.9902-1zm5 0v2h-2v2h2v2h2v-2h2v-2h-2v-2z" fill="#fff"/></svg>

<svg height="16" viewBox="0 0 16 16" width="16" xmlns="http://www.w3.org/2000/svg"><path d="M10 1.6a5.96 5.96 0 1 0-1.465 9.763l3.8 3.8a1 1 0 0 0 1.414 0l1.414-1.414a1 1 0 0 0 0-1.414l-3.8-3.8A5.85 5.85 0 0 0 11.576 8H13a1 1 0 0 0 1-1V6h1a1 1 0 0 0 1-1V3a1 1 0 0 0-1-1h-1V1a1 1 0 0 0-1-1h-2a1 1 0 0 0-1 1z"/><path d="M6 1a5 5 0 1 0 2.752 9.166l4.318 4.318 1.414-1.414-4.318-4.318a5 5 0 0 0 .41-.752H10V6H9a3 3 0 1 1-1-2.232V2h.99A5 5 0 0 0 6 1zm5 0v2H9v2h2v2h2V5h2V3h-2V1z" fill="#fff"/></svg>
